_inc/logos/namco.svg

<?xml version="1.0" encoding="UTF-8" standalone="no"?>
<!DOCTYPE svg PUBLIC "-//W3C//DTD SVG 1.0//EN" "http://www.w3.org/TR/2001/REC-SVG-20010904/DTD/svg10.dtd">
<!-- Created with Inkscape (http://www.inkscape.org/) -->
<svg
   xmlns:svg="http://www.w3.org/2000/svg"
   xmlns="http://www.w3.org/2000/svg"
   version="1.0"
   width="800"
   height="110"
   id="svg2">
  <defs
     id="defs4" />
  <g
     id="layer1">
    <path
       d="M 649.08982,6.2827844 C 634.43552,6.2827844 622.20754,18.510765 622.20754,33.165066 L 622.20754,80.125402 C 622.20754,94.779705 634.43552,107.00772 649.08982,107.00769 L 734.19846,107.00769 C 748.85276,107.00769 761.08067,94.779669 761.08074,80.125402 L 761.08074,33.165066 C 761.08074,18.510765 748.85276,6.2827844 734.19846,6.2827844 L 649.08982,6.2827844 z M 655.17995,34.838237 L 727.47736,34.838237 L 727.47736,78.452231 L 655.17995,78.452231 L 655.17995,34.838237 z"
       id="rect4393"
       style="opacity:1;fill:#a51e23;fill-opacity:1;fill-rule:nonzero;stroke:none;stroke-width:8;stroke-linecap:round;stroke-linejoin:round;stroke-miterlimit:4;stroke-dasharray:none;stroke-opacity:1" />
    <path
       d="M 8.1985733,8.2905898 L 8.1985733,107.11923 L 41.170984,107.11923 L 41.170984,36.846042 L 103.41952,36.846042 L 103.41952,107.11923 L 135.76093,107.11923 L 135.76093,35.172871 C 135.76093,20.518569 123.53294,8.2905898 108.87864,8.2905898 L 8.1985733,8.2905898 z"
       id="rect4348"
       style="opacity:1;fill:#a51e23;fill-opacity:1;fill-rule:nonzero;stroke:none;stroke-width:8;stroke-linecap:round;stroke-linejoin:round;stroke-miterlimit:4;stroke-dasharray:none;stroke-opacity:1" />
    <path
       d="M 158.06987,8.2905898 L 158.06987,34.280513 L 247.6403,34.280513 L 247.6403,41.307832 L 177.70175,41.307832 C 163.04745,41.307832 150.81947,53.647358 150.81947,68.30166 L 150.81947,80.236947 C 150.81947,94.891249 163.04745,107.11923 177.70175,107.11923 L 247.6403,107.11923 L 262.25266,107.11923 L 279.98828,107.11923 L 279.98828,35.172871 C 279.98824,20.518569 267.7603,8.2905898 253.10599,8.2905898 L 158.06987,8.2905898 z M 184.50598,67.632391 L 247.6403,67.632391 L 247.6403,81.687029 L 184.50598,81.687029 L 184.50598,67.632391 z"
       id="path4359"
       style="opacity:1;fill:#a51e23;fill-opacity:1;fill-rule:nonzero;stroke:none;stroke-width:8;stroke-linecap:round;stroke-linejoin:round;stroke-miterlimit:4;stroke-dasharray:none;stroke-opacity:1" />
    <path
       d="M 300.28942,8.2905898 L 300.28942,107.11923 L 333.30666,107.11923 L 333.30666,36.846042 L 367.21626,36.846042 L 367.21626,107.11923 L 400.2335,107.11923 L 400.2335,36.846042 L 434.81237,36.846042 L 434.81237,107.11923 L 467.16034,107.11923 L 467.16034,35.172871 C 467.16038,20.518569 454.93236,8.2905898 440.27806,8.2905898 L 300.28942,8.2905898 z"
       id="path4384"
       style="opacity:1;fill:#a51e23;fill-opacity:1;fill-rule:nonzero;stroke:none;stroke-width:8;stroke-linecap:round;stroke-linejoin:round;stroke-miterlimit:4;stroke-dasharray:none;stroke-opacity:1" />
    <path
       d="M 513.22832,6.2827844 C 498.57402,6.2827844 486.34604,18.510765 486.34604,33.165066 L 486.34604,80.125402 C 486.34604,94.779705 498.57402,107.00772 513.22832,107.00769 L 603.57956,107.00769 L 603.57956,78.452231 L 519.94942,78.452231 L 519.94942,34.838237 L 603.57956,34.838237 L 603.57956,6.2827844 L 513.22832,6.2827844 z"
       id="rect4389"
       style="opacity:1;fill:#a51e23;fill-opacity:1;fill-rule:nonzero;stroke:none;stroke-width:8;stroke-linecap:round;stroke-linejoin:round;stroke-miterlimit:4;stroke-dasharray:none;stroke-opacity:1" />
    <path
       d="M 782.22423,7.1951312 C 786.53265,7.1951669 790.23454,8.7393744 793.32991,11.827718 C 796.42525,14.916133 797.97292,18.628485 797.97296,22.964772 C 797.97292,27.301096 796.43221,31.01691 793.35083,34.112286 C 790.26938,37.207626 786.56052,38.755331 782.22423,38.755331 C 777.87399,38.755331 774.15118,37.211124 771.05584,34.122744 C 767.96046,31.034329 766.41276,27.315017 766.41276,22.964772 C 766.41276,18.614529 767.96393,14.898714 771.0663,11.81726 C 774.1686,8.7358764 777.88795,7.1951669 782.22423,7.1951312 L 782.22423,7.1951312 z M 782.1824,36.161889 C 785.79367,36.161889 788.8925,34.868684 791.47899,32.282238 C 794.0654,29.695792 795.3586,26.589994 795.35864,22.964772 C 795.3586,19.339587 794.06886,16.240749 791.48944,13.668224 C 788.90992,11.095735 785.80759,9.8094901 782.1824,9.8094544 C 778.55721,9.8094901 775.45834,11.095735 772.88585,13.668224 C 770.31336,16.240749 769.02712,19.339587 769.02712,22.964772 C 769.02712,26.589994 770.31336,29.695792 772.88585,32.282238 C 775.45834,34.868684 778.55721,36.161889 782.1824,36.161889 L 782.1824,36.161889 z M 789.29339,31.707096 L 786.15618,31.707096 L 784.83856,28.005202 C 784.04379,25.788264 782.54491,24.679777 780.34193,24.679777 L 778.18771,24.679777 L 778.18771,31.707096 L 775.44788,31.707096 L 775.44788,14.7453 L 781.82685,14.7453 C 786.31652,14.745336 788.56137,16.300002 788.56137,19.409263 C 788.56137,22.407048 787.09037,24.017469 784.14837,24.240558 C 785.65421,24.700694 786.76966,25.774308 787.49471,27.461399 L 789.29339,31.707096 z M 778.18771,22.316421 L 781.61772,22.316421 C 784.30871,22.316421 785.65421,21.431059 785.65424,19.660264 C 785.65421,17.917383 784.26688,17.045942 781.49221,17.045942 L 778.18771,17.045942 L 778.18771,22.316421 z"
       id="text4406"
       style="font-size:12px;font-style:normal;font-variant:normal;font-weight:normal;font-stretch:normal;text-align:start;line-height:100%;writing-mode:lr-tb;text-anchor:start;fill:#a51e23;fill-opacity:1;stroke:none;stroke-width:1px;stroke-linecap:butt;stroke-linejoin:miter;stroke-opacity:1;font-family:Microsoft Sans Serif;-inkscape-font-specification:Microsoft Sans Serif" />
  </g>
</svg>

<svg xmlns="http://www.w3.org/2000/svg" version="1.0" width="800" height="110">
    <path d="M649.09 6.283c-14.654 0-26.882 12.228-26.882 26.882v46.96c0 14.655 12.228 26.883 26.882 26.883h85.108c14.655 0 26.883-12.228 26.883-26.883v-46.96c0-14.654-12.228-26.882-26.883-26.882H649.09zm6.09 28.555h72.297v43.614H655.18V34.838zM8.199 8.29v98.83H41.17V36.845h62.249v70.273h32.34V35.173c0-14.654-12.227-26.882-26.881-26.882H8.199zM158.07 8.29v25.99h89.57v7.028h-69.938c-14.655 0-26.883 12.34-26.883 26.994v11.935c0 14.654 12.228 26.882 26.883 26.882h102.286V35.173c0-14.654-12.228-26.882-26.882-26.882H158.07zm26.436 59.342h63.134v14.055h-63.134V67.632zM300.29 8.29v98.83h33.017V36.845h33.91v70.273h33.017V36.846h34.578v70.273h32.348V35.173c0-14.654-12.228-26.882-26.882-26.882H300.29zM513.228 6.283c-14.654 0-26.882 12.228-26.882 26.882v46.96c0 14.655 12.228 26.883 26.882 26.883h90.352V78.452h-83.63V34.838h83.63V6.283h-90.352z" style="opacity:1;fill:#a51e23;fill-opacity:1;fill-rule:nonzero;stroke:none;stroke-width:8;stroke-linecap:round;stroke-linejoin:round;stroke-miterlimit:4;stroke-dasharray:none;stroke-opacity:1"/>
    <path d="M782.224 7.195c4.309 0 8.01 1.544 11.106 4.633 3.095 3.088 4.643 6.8 4.643 11.137 0 4.336-1.54 8.052-4.622 11.147-3.082 3.096-6.79 4.643-11.127 4.643-4.35 0-8.073-1.544-11.168-4.632-3.096-3.089-4.643-6.808-4.643-11.158s1.55-8.066 4.653-11.148c3.103-3.081 6.822-4.622 11.158-4.622zm-.042 28.967c3.612 0 6.71-1.293 9.297-3.88 2.586-2.586 3.88-5.692 3.88-9.317s-1.29-6.724-3.87-9.297c-2.58-2.572-5.681-3.859-9.307-3.859-3.625 0-6.724 1.287-9.296 3.86-2.573 2.572-3.859 5.67-3.859 9.296 0 3.625 1.286 6.73 3.859 9.317 2.572 2.587 5.671 3.88 9.296 3.88zm7.111-4.455h-3.137l-1.317-3.702c-.795-2.217-2.294-3.325-4.497-3.325h-2.154v7.027h-2.74V14.745h6.379c4.49 0 6.734 1.555 6.734 4.664 0 2.998-1.47 4.608-4.413 4.832 1.506.46 2.622 1.533 3.347 3.22l1.798 4.246zm-11.105-9.39h3.43c2.69 0 4.036-.886 4.036-2.657 0-1.743-1.387-2.614-4.162-2.614h-3.304v5.27z" style="font-size:12px;font-style:normal;font-variant:normal;font-weight:400;font-stretch:normal;text-align:start;line-height:100%;writing-mode:lr-tb;text-anchor:start;fill:#a51e23;fill-opacity:1;stroke:none;stroke-width:1px;stroke-linecap:butt;stroke-linejoin:miter;stroke-opacity:1;font-family:Microsoft Sans Serif;-inkscape-font-specification:Microsoft Sans Serif"/>
</svg>
